source/images/icon-caching.svg

<?xml version="1.0" encoding="UTF-8"?>
<svg width="118px" height="64px" viewBox="0 0 118 64" version="1.1" xmlns="http://www.w3.org/2000/svg" xmlns:xlink="http://www.w3.org/1999/xlink">
    <!-- Generator: Sketch 41.2 (35397) - https://www.sketchapp.com -->
    <title>icon-caching</title>
    <desc>Created with Sketch.</desc>
    <defs></defs>
    <g id="Updated-HOME-+-icons" stroke="none" stroke-width="1" fill="none" fill-rule="evenodd">
        <g id="Artboard" transform="translate(-130.000000, -285.000000)" fill="#0093C9">
            <g id="icon-caching" transform="translate(130.000000, 284.000000)">
                <polygon id="Fill-1" points="76.814 55.7352 92.567 55.7352 92.567 39.2302 76.814 39.2302"></polygon>
                <polygon id="Fill-2" points="95.637 42.0392 108.982 42.0392 108.982 39.2302 95.637 39.2302"></polygon>
                <polygon id="Fill-3" points="95.637 46.6042 108.982 46.6042 108.982 43.7952 95.637 43.7952"></polygon>
                <polygon id="Fill-4" points="95.637 51.1702 108.982 51.1702 108.982 48.3612 95.637 48.3612"></polygon>
                <polygon id="Fill-5" points="95.637 55.7352 108.982 55.7352 108.982 52.9262 95.637 52.9262"></polygon>
                <g id="Group-20" transform="translate(0.000000, 0.175200)">
                    <g id="Group-8">
                        <path d="M6.2272,3.4965 C7.2042,3.4965 8.0012,4.2855 8.0012,5.2785 C8.0012,6.2555 7.2042,7.0525 6.2272,7.0525 C5.2422,7.0525 4.4452,6.2555 4.4452,5.2785 C4.4452,4.2935 5.2422,3.4965 6.2272,3.4965 L6.2272,3.4965 Z M11.5622,3.4965 C12.5412,3.4965 13.3362,4.2855 13.3362,5.2785 C13.3362,6.2555 12.5412,7.0525 11.5622,7.0525 C10.5782,7.0525 9.7832,6.2555 9.7832,5.2785 C9.7832,4.2935 10.5782,3.4965 11.5622,3.4965 L11.5622,3.4965 Z M33.1112,36.0145 L3.5552,36.0145 L3.5552,9.7565 L46.2382,9.7565 L46.2382,13.0115 L49.8022,13.0115 L49.8022,4.3805 C49.8022,2.4165 48.2022,0.8245 46.2382,0.8245 L3.5552,0.8245 C1.5922,0.8245 0.0002,2.4165 0.0002,4.3805 L0.0002,36.0145 C0.0002,37.9775 1.5922,39.5775 3.5552,39.5775 L33.1112,39.5775 L33.1112,36.0145 Z" id="Fill-6"></path>
                    </g>
                    <path d="M39.3386,15.6834 C40.3156,15.6834 41.1126,16.4724 41.1126,17.4654 C41.1126,18.4424 40.3156,19.2394 39.3386,19.2394 C38.3536,19.2394 37.5566,18.4424 37.5566,17.4654 C37.5566,16.4804 38.3536,15.6834 39.3386,15.6834 L39.3386,15.6834 Z M44.6736,15.6834 C45.6526,15.6834 46.4476,16.4724 46.4476,17.4654 C46.4476,18.4424 45.6526,19.2394 44.6736,19.2394 C43.6896,19.2394 42.8946,18.4424 42.8946,17.4654 C42.8946,16.4804 43.6896,15.6834 44.6736,15.6834 L44.6736,15.6834 Z M67.9966,48.2014 L36.6666,48.2014 L36.6666,21.9434 L79.3496,21.9434 L79.3496,25.2474 L82.9136,25.2474 L82.9136,16.5674 C82.9136,14.6034 81.3136,13.0114 79.3496,13.0114 L36.6666,13.0114 C34.7036,13.0114 33.1116,14.6034 33.1116,16.5674 L33.1116,48.2014 C33.1116,50.1644 34.7036,51.7644 36.6666,51.7644 L67.9966,51.7644 L67.9966,48.2014 Z" id="Fill-9"></path>
                    <path d="M71.552,60.436 L114.235,60.436 L114.235,34.178 L71.552,34.178 L71.552,60.436 Z M74.224,27.919 C75.201,27.919 75.998,28.708 75.998,29.701 C75.998,30.677 75.201,31.474 74.224,31.474 C73.239,31.474 72.442,30.677 72.442,29.701 C72.442,28.716 73.239,27.919 74.224,27.919 L74.224,27.919 Z M79.559,27.919 C80.538,27.919 81.333,28.708 81.333,29.701 C81.333,30.677 80.538,31.474 79.559,31.474 C78.575,31.474 77.779,30.677 77.779,29.701 C77.779,28.716 78.575,27.919 79.559,27.919 L79.559,27.919 Z M114.235,25.247 L71.552,25.247 C69.589,25.247 67.997,26.839 67.997,28.803 L67.997,60.436 C67.997,62.4 69.589,64 71.552,64 L114.235,64 C116.199,64 117.799,62.4 117.799,60.436 L117.799,28.803 C117.799,26.839 116.199,25.247 114.235,25.247 L114.235,25.247 Z" id="Fill-11"></path>
                    <path d="M61.1437,38.9774 C60.7137,38.9774 60.3617,38.6284 60.3617,38.1954 L60.3617,27.1574 L44.1107,27.1574 C43.6807,27.1574 43.3287,26.8074 43.3287,26.3784 C43.3287,25.9444 43.6807,25.5954 44.1107,25.5954 L61.1437,25.5954 C61.5777,25.5954 61.9257,25.9444 61.9257,26.3784 L61.9257,38.1984 C61.9257,38.6284 61.5777,38.9774 61.1437,38.9774 L61.1437,38.9774 Z M51.2817,33.8944 C51.2817,32.9604 52.0407,32.1984 52.9747,32.1984 C53.9097,32.1984 54.6687,32.9604 54.6687,33.8944 C54.6687,34.8284 53.9097,35.5874 52.9747,35.5874 C52.0407,35.5874 51.2817,34.8284 51.2817,33.8944 L51.2817,33.8944 Z M57.5377,29.9834 L57.5377,39.3874 L55.1517,36.4904 C55.0647,36.3864 54.9107,36.3674 54.7977,36.4484 L52.0237,38.4734 L47.2587,33.8374 C47.2027,33.7844 47.1267,33.7614 47.0507,33.7644 C46.9747,33.7734 46.9077,33.8124 46.8617,33.8744 L43.1997,39.1174 L43.1997,29.9834 L57.5377,29.9834 Z M58.5817,27.8964 L42.1557,27.8964 C41.5787,27.8964 41.1127,28.3634 41.1127,28.9404 L41.1127,41.7164 C41.1127,42.2904 41.5787,42.7614 42.1557,42.7614 L58.5817,42.7614 C59.1587,42.7614 59.6247,42.2904 59.6247,41.7164 L59.6247,28.9404 C59.6217,28.3634 59.1587,27.8964 58.5817,27.8964 L58.5817,27.8964 Z" id="Fill-13"></path>
                    <polygon id="Fill-14" points="7.197 15.842 23.393 15.842 23.393 12.853 7.197 12.853"></polygon>
                    <polygon id="Fill-15" points="7.312 32.673 23.507 32.673 23.507 29.684 7.312 29.684"></polygon>
                    <polygon id="Fill-16" points="14.862 21.492 24.244 21.492 24.244 18.503 14.862 18.503"></polygon>
                    <polygon id="Fill-17" points="7.387 21.492 12.078 21.492 12.078 18.503 7.387 18.503"></polygon>
                    <polygon id="Fill-18" points="7.387 26.719 16.769 26.719 16.769 23.73 7.387 23.73"></polygon>
                    <polygon id="Fill-19" points="19.321 26.719 28.703 26.719 28.703 23.73 19.321 23.73"></polygon>
                </g>
            </g>
        </g>
    </g>
</svg>

<svg height="64" viewBox="0 0 118 64" width="118" xmlns="http://www.w3.org/2000/svg"><g fill="#0093c9" fill-rule="evenodd" transform="translate(0 -1)"><path d="m76.814 55.7352h15.753v-16.505h-15.753z"/><path d="m95.637 42.0392h13.345v-2.809h-13.345z"/><path d="m95.637 46.6042h13.345v-2.809h-13.345z"/><path d="m95.637 51.1702h13.345v-2.809h-13.345z"/><path d="m95.637 55.7352h13.345v-2.809h-13.345z"/><g transform="translate(0 .1752)"><path d="m6.2272 3.4965c.977 0 1.774.789 1.774 1.782 0 .977-.797 1.774-1.774 1.774-.985 0-1.782-.797-1.782-1.774 0-.985.797-1.782 1.782-1.782zm5.335 0c.979 0 1.774.789 1.774 1.782 0 .977-.795 1.774-1.774 1.774-.984 0-1.779-.797-1.779-1.774 0-.985.795-1.782 1.779-1.782zm21.549 32.518h-29.556v-26.258h42.683v3.255h3.564v-8.631c0-1.964-1.6-3.556-3.564-3.556h-42.683c-1.963 0-3.555 1.592-3.555 3.556v31.634c0 1.963 1.592 3.563 3.555 3.563h29.556z"/><path d="m39.3386 15.6834c.977 0 1.774.789 1.774 1.782 0 .977-.797 1.774-1.774 1.774-.985 0-1.782-.797-1.782-1.774 0-.985.797-1.782 1.782-1.782zm5.335 0c.979 0 1.774.789 1.774 1.782 0 .977-.795 1.774-1.774 1.774-.984 0-1.779-.797-1.779-1.774 0-.985.795-1.782 1.779-1.782zm23.323 32.518h-31.33v-26.258h42.683v3.304h3.564v-8.68c0-1.964-1.6-3.556-3.564-3.556h-42.683c-1.963 0-3.555 1.592-3.555 3.556v31.634c0 1.963 1.592 3.563 3.555 3.563h31.33z"/><path d="m71.552 60.436h42.683v-26.258h-42.683zm2.672-32.517c.977 0 1.774.789 1.774 1.782 0 .976-.797 1.773-1.774 1.773-.985 0-1.782-.797-1.782-1.773 0-.985.797-1.782 1.782-1.782zm5.335 0c.979 0 1.774.789 1.774 1.782 0 .976-.795 1.773-1.774 1.773-.984 0-1.78-.797-1.78-1.773 0-.985.796-1.782 1.78-1.782zm34.676-2.672h-42.683c-1.963 0-3.555 1.592-3.555 3.556v31.633c0 1.964 1.592 3.564 3.555 3.564h42.683c1.964 0 3.564-1.6 3.564-3.564v-31.633c0-1.964-1.6-3.556-3.564-3.556z"/><path d="m61.1437 38.9774c-.43 0-.782-.349-.782-.782v-11.038h-16.251c-.43 0-.782-.35-.782-.779 0-.434.352-.783.782-.783h17.033c.434 0 .782.349.782.783v11.82c0 .43-.348.779-.782.779zm-9.862-5.083c0-.934.759-1.696 1.693-1.696.935 0 1.694.762 1.694 1.696s-.759 1.693-1.694 1.693c-.934 0-1.693-.759-1.693-1.693zm6.256-3.911v9.404l-2.386-2.897c-.087-.104-.241-.123-.354-.042l-2.774 2.025-4.765-4.636c-.056-.053-.132-.076-.208-.073-.076.009-.143.048-.189.11l-3.662 5.243v-9.134zm1.044-2.087h-16.426c-.577 0-1.043.467-1.043 1.044v12.776c0 .574.466 1.045 1.043 1.045h16.426c.577 0 1.043-.471 1.043-1.045v-12.776c-.003-.577-.466-1.044-1.043-1.044z"/><path d="m7.197 15.842h16.196v-2.989h-16.196z"/><path d="m7.312 32.673h16.195v-2.989h-16.195z"/><path d="m14.862 21.492h9.382v-2.989h-9.382z"/><path d="m7.387 21.492h4.691v-2.989h-4.691z"/><path d="m7.387 26.719h9.382v-2.989h-9.382z"/><path d="m19.321 26.719h9.382v-2.989h-9.382z"/></g></g></svg>
